X: 3
T:Beaux of London City
% Nottingham Music Database
S:Adderbury [News] ch(AB3) 6
Y:ABCBCBCBCBCBC
M:9/8
K:F
P:A
C|
P:B
|:F3/2F/2F AGF A/2c3/2C|F2F A2G F2C|F3/2F/2F AGF A/2c3/2C|F3/2C/2F A2G F2C:|
P:C
c2B AGF Ac2|G2G G2A B3|c2B AGF A/2c3/2C|F3/2C/2F A2G F2C:|


